src/images/svg/be-square/be-square-logo.svg

<svg width="286" height="27" viewBox="0 0 286 27" fill="none" xmlns="http://www.w3.org/2000/svg">
<path d="M6.13001 0V0.02925L16.3142 13.5L0 26.9708V27H16.4736C21.2812 27.0005 25.4528 23.6268 26.5339 18.864L27.8971 12.8565C28.6045 9.73993 27.8756 6.46548 25.9173 3.96229C23.959 1.4591 20.9849 0.00036195 17.839 0H6.13001Z" fill="url(#paint0_linear)"/>
<path d="M16.3076 13.5264L9.14412 26.9994H0L16.3076 13.5264Z" fill="#B51A31"/>
<path d="M139.883 0L143.503 18.8797L153.67 0H159.924L144.581 27H139.458L133.481 0H139.883ZM49.9311 0C58.21 0 62.9414 5.7825 61.6335 13.3267L61.6202 13.4032C60.3101 20.9497 53.5693 26.8088 45.2816 26.8088H35L39.6473 0H49.9311ZM107.15 0C110.503 0 112.935 0.9585 114.354 2.72025C115.564 4.212 115.994 6.32025 115.551 8.847L115.538 8.9235C114.796 13.2502 112.028 15.9705 108.456 17.235L113.234 26.8088H106.453L100.144 13.0162H104.508C107.334 13.0162 109.22 11.475 109.611 9.225L109.625 9.1485C110.063 6.62625 108.556 5.3235 105.73 5.3235H99.9759L96.2492 26.8088H90.449L95.0963 0H107.15ZM128.772 0L124.124 26.8088H118.322L122.971 0H128.772ZM89.3712 0L88.4595 5.247H74.3361L73.3912 10.6853H82.5087L81.5992 15.9323H72.4816L71.5057 21.5572H85.8194L84.9098 26.8043H64.8335L69.4808 0H89.3712ZM49.0083 5.3235H44.527L41.7231 21.4853H46.2066C50.9513 21.4853 54.7178 18.2295 55.5411 13.4797L55.5544 13.4032C56.3776 8.65575 53.7552 5.3235 49.0083 5.3235Z" fill="white"/>
<rect x="168" width="1" height="27" fill="white"/>
<path d="M178.848 5.24796H186.984C188.376 5.24796 189.456 5.63996 190.224 6.42396C191.008 7.20796 191.4 8.24796 191.4 9.54396C191.4 10.184 191.312 10.728 191.136 11.176C190.976 11.624 190.752 11.992 190.464 12.28C190.192 12.568 189.864 12.784 189.48 12.928C189.112 13.056 188.712 13.128 188.28 13.144V13.288C188.68 13.288 189.096 13.36 189.528 13.504C189.976 13.648 190.384 13.88 190.752 14.2C191.12 14.504 191.424 14.904 191.664 15.4C191.92 15.896 192.048 16.504 192.048 17.224C192.048 17.88 191.936 18.504 191.712 19.096C191.504 19.672 191.208 20.176 190.824 20.608C190.44 21.04 189.984 21.384 189.456 21.64C188.928 21.88 188.352 22 187.728 22H178.848V5.24796ZM182.496 18.928H186.696C187.176 18.928 187.552 18.8 187.824 18.544C188.112 18.272 188.256 17.896 188.256 17.416V16.6C188.256 16.12 188.112 15.752 187.824 15.496C187.552 15.224 187.176 15.088 186.696 15.088H182.496V18.928ZM182.496 12.112H186.12C186.6 12.112 186.976 11.976 187.248 11.704C187.52 11.432 187.656 11.056 187.656 10.576V9.85596C187.656 9.37596 187.52 8.99996 187.248 8.72796C186.976 8.45596 186.6 8.31996 186.12 8.31996H182.496V12.112Z" fill="white"/>
<path d="M199.919 22.288C198.959 22.288 198.103 22.136 197.351 21.832C196.599 21.512 195.959 21.072 195.431 20.512C194.919 19.936 194.527 19.24 194.255 18.424C193.999 17.608 193.871 16.696 193.871 15.688C193.871 14.696 193.999 13.8 194.255 13C194.511 12.184 194.887 11.488 195.383 10.912C195.895 10.336 196.519 9.89596 197.255 9.59196C197.991 9.27196 198.831 9.11196 199.775 9.11196C200.815 9.11196 201.703 9.28796 202.439 9.63996C203.191 9.99196 203.799 10.464 204.263 11.056C204.743 11.648 205.087 12.336 205.295 13.12C205.519 13.888 205.631 14.696 205.631 15.544V16.6H197.543V16.792C197.543 17.624 197.767 18.288 198.215 18.784C198.663 19.264 199.367 19.504 200.327 19.504C201.063 19.504 201.663 19.36 202.127 19.072C202.591 18.768 203.023 18.408 203.423 17.992L205.199 20.2C204.639 20.856 203.903 21.368 202.991 21.736C202.095 22.104 201.071 22.288 199.919 22.288ZM199.847 11.728C199.127 11.728 198.559 11.968 198.143 12.448C197.743 12.912 197.543 13.536 197.543 14.32V14.512H201.959V14.296C201.959 13.528 201.783 12.912 201.431 12.448C201.095 11.968 200.567 11.728 199.847 11.728Z" fill="white"/>
<path d="M213.522 22.288C212.05 22.288 210.802 22.04 209.778 21.544C208.754 21.032 207.882 20.376 207.162 19.576L209.562 17.152C210.698 18.432 212.098 19.072 213.762 19.072C214.658 19.072 215.322 18.888 215.754 18.52C216.186 18.152 216.402 17.664 216.402 17.056C216.402 16.592 216.274 16.208 216.018 15.904C215.762 15.584 215.242 15.368 214.458 15.256L212.802 15.04C211.026 14.816 209.722 14.28 208.89 13.432C208.074 12.584 207.666 11.456 207.666 10.048C207.666 9.29596 207.81 8.60796 208.098 7.98396C208.386 7.35996 208.794 6.82396 209.322 6.37596C209.866 5.92796 210.522 5.58396 211.29 5.34396C212.074 5.08796 212.962 4.95996 213.954 4.95996C215.218 4.95996 216.33 5.15996 217.29 5.55996C218.25 5.95996 219.074 6.54396 219.762 7.31196L217.338 9.75996C216.938 9.29596 216.45 8.91996 215.874 8.63196C215.314 8.32796 214.602 8.17596 213.738 8.17596C212.922 8.17596 212.314 8.31996 211.914 8.60796C211.514 8.89596 211.314 9.29596 211.314 9.80796C211.314 10.384 211.466 10.8 211.77 11.056C212.09 11.312 212.602 11.496 213.306 11.608L214.962 11.872C216.69 12.144 217.97 12.68 218.802 13.48C219.634 14.264 220.05 15.384 220.05 16.84C220.05 17.64 219.906 18.376 219.618 19.048C219.33 19.72 218.906 20.296 218.346 20.776C217.802 21.256 217.122 21.632 216.306 21.904C215.49 22.16 214.562 22.288 213.522 22.288Z" fill="white"/>
<path d="M230.61 19.888H230.49C230.394 20.224 230.242 20.544 230.034 20.848C229.826 21.136 229.57 21.392 229.266 21.616C228.978 21.824 228.642 21.984 228.258 22.096C227.89 22.224 227.506 22.288 227.106 22.288C225.506 22.288 224.298 21.728 223.482 20.608C222.666 19.472 222.258 17.832 222.258 15.688C222.258 13.544 222.666 11.912 223.482 10.792C224.298 9.67196 225.506 9.11196 227.106 9.11196C227.922 9.11196 228.642 9.33596 229.266 9.78396C229.906 10.232 230.314 10.808 230.49 11.512H230.61V9.39996H234.162V26.8H230.61V19.888ZM228.282 19.408C228.954 19.408 229.506 19.248 229.938 18.928C230.386 18.592 230.61 18.136 230.61 17.56V13.84C230.61 13.264 230.386 12.816 229.938 12.496C229.506 12.16 228.954 11.992 228.282 11.992C227.61 11.992 227.05 12.232 226.602 12.712C226.17 13.176 225.954 13.808 225.954 14.608V16.792C225.954 17.592 226.17 18.232 226.602 18.712C227.05 19.176 227.61 19.408 228.282 19.408Z" fill="white"/>
<path d="M244.924 19.888H244.804C244.692 20.208 244.54 20.512 244.348 20.8C244.172 21.088 243.94 21.344 243.652 21.568C243.364 21.792 243.02 21.968 242.62 22.096C242.236 22.224 241.788 22.288 241.276 22.288C239.98 22.288 238.996 21.864 238.324 21.016C237.668 20.152 237.34 18.92 237.34 17.32V9.39996H240.892V17.008C240.892 17.776 241.028 18.368 241.3 18.784C241.572 19.2 242.036 19.408 242.692 19.408C242.964 19.408 243.236 19.368 243.508 19.288C243.78 19.208 244.02 19.096 244.228 18.952C244.436 18.792 244.604 18.6 244.732 18.376C244.86 18.152 244.924 17.888 244.924 17.584V9.39996H248.476V22H244.924V19.888Z" fill="white"/>
<path d="M261.093 22C260.453 22 259.917 21.8 259.485 21.4C259.069 21 258.805 20.464 258.693 19.792H258.549C258.357 20.608 257.933 21.232 257.277 21.664C256.621 22.08 255.813 22.288 254.853 22.288C253.589 22.288 252.621 21.952 251.949 21.28C251.277 20.608 250.941 19.72 250.941 18.616C250.941 17.288 251.421 16.304 252.381 15.664C253.357 15.008 254.677 14.68 256.341 14.68H258.333V13.888C258.333 13.28 258.173 12.8 257.853 12.448C257.533 12.08 256.997 11.896 256.245 11.896C255.541 11.896 254.981 12.048 254.565 12.352C254.149 12.656 253.805 13 253.533 13.384L251.421 11.512C251.933 10.76 252.573 10.176 253.341 9.75996C254.125 9.32796 255.181 9.11196 256.509 9.11196C258.301 9.11196 259.645 9.50396 260.541 10.288C261.437 11.072 261.885 12.216 261.885 13.72V19.24H263.061V22H261.093ZM256.173 19.816C256.765 19.816 257.269 19.688 257.685 19.432C258.117 19.176 258.333 18.76 258.333 18.184V16.696H256.605C255.213 16.696 254.517 17.168 254.517 18.112V18.472C254.517 18.936 254.661 19.28 254.949 19.504C255.237 19.712 255.645 19.816 256.173 19.816Z" fill="white"/>
<path d="M265.445 22V9.39996H268.997V12.136H269.117C269.181 11.784 269.293 11.448 269.453 11.128C269.613 10.792 269.821 10.496 270.077 10.24C270.349 9.98396 270.669 9.78396 271.037 9.63996C271.405 9.47996 271.837 9.39996 272.333 9.39996H272.957V12.712H272.069C271.029 12.712 270.253 12.848 269.741 13.12C269.245 13.392 268.997 13.896 268.997 14.632V22H265.445Z" fill="white"/>
<path d="M280.287 22.288C279.327 22.288 278.471 22.136 277.719 21.832C276.967 21.512 276.327 21.072 275.799 20.512C275.287 19.936 274.895 19.24 274.623 18.424C274.367 17.608 274.239 16.696 274.239 15.688C274.239 14.696 274.367 13.8 274.623 13C274.879 12.184 275.255 11.488 275.751 10.912C276.263 10.336 276.887 9.89596 277.623 9.59196C278.359 9.27196 279.199 9.11196 280.143 9.11196C281.183 9.11196 282.071 9.28796 282.807 9.63996C283.559 9.99196 284.167 10.464 284.631 11.056C285.111 11.648 285.455 12.336 285.663 13.12C285.887 13.888 285.999 14.696 285.999 15.544V16.6H277.911V16.792C277.911 17.624 278.135 18.288 278.583 18.784C279.031 19.264 279.735 19.504 280.695 19.504C281.431 19.504 282.031 19.36 282.495 19.072C282.959 18.768 283.391 18.408 283.791 17.992L285.567 20.2C285.007 20.856 284.271 21.368 283.359 21.736C282.463 22.104 281.439 22.288 280.287 22.288ZM280.215 11.728C279.495 11.728 278.927 11.968 278.511 12.448C278.111 12.912 277.911 13.536 277.911 14.32V14.512H282.327V14.296C282.327 13.528 282.151 12.912 281.799 12.448C281.463 11.968 280.935 11.728 280.215 11.728Z" fill="white"/>
<defs>
<linearGradient id="paint0_linear" x1="14.0808" y1="0" x2="14.0808" y2="27" gradientUnits="userSpaceOnUse">
<stop stop-color="#FF6544"/>
<stop offset="1" stop-color="#FF4449"/>
</linearGradient>
</defs>
</svg>

<svg xmlns="http://www.w3.org/2000/svg" xmlns:xlink="http://www.w3.org/1999/xlink" width="286" height="27" fill="none" xmlns:v="https://vecta.io/nano"><path d="M6.13 0v.029L16.314 13.5 0 26.971V27h16.474c4.808 0 8.979-3.373 10.06-8.136l1.363-6.007a10.63 10.63 0 0 0-1.98-8.894C23.959 1.459 20.985 0 17.839 0H6.13z" fill="url(#A)"/><path d="M16.308 13.526L9.144 26.999H0l16.308-13.473z" fill="#b51a31"/><g fill="#fff"><path d="M139.883 0l3.62 18.88L153.67 0h6.254l-15.343 27h-5.123l-5.977-27h6.402zM49.931 0c8.279 0 13.01 5.783 11.702 13.327l-.013.076c-1.31 7.547-8.051 13.406-16.339 13.406H35L39.647 0h10.284zm57.219 0c3.353 0 5.785.959 7.204 2.72 1.21 1.492 1.64 3.6 1.197 6.127l-.013.077c-.742 4.327-3.51 7.047-7.082 8.311l4.778 9.574h-6.781l-6.309-13.793h4.364c2.826 0 4.712-1.541 5.103-3.791l.014-.076c.438-2.522-1.069-3.825-3.895-3.825h-5.754l-3.727 21.485h-5.8L95.096 0h12.054zm21.622 0l-4.648 26.809h-5.802L122.971 0h5.801zM89.371 0l-.912 5.247H74.336l-.945 5.438h9.118l-.91 5.247h-9.118l-.976 5.625h14.314l-.91 5.247H64.834L69.481 0h19.89zM49.008 5.324h-4.481l-2.804 16.162h4.483c4.745 0 8.511-3.256 9.334-8.006l.013-.076c.823-4.747-1.799-8.08-6.546-8.08zM168 0h1v27h-1zm10.848 5.248h8.136c1.392 0 2.472.392 3.24 1.176.784.784 1.176 1.824 1.176 3.12 0 .64-.088 1.184-.264 1.632-.16.448-.384.816-.672 1.104a2.58 2.58 0 0 1-.984.648c-.368.128-.768.2-1.2.216v.144a3.94 3.94 0 0 1 1.248.216 3.47 3.47 0 0 1 1.224.696c.368.304.672.704.912 1.2.256.496.384 1.104.384 1.824 0 .656-.112 1.28-.336 1.872-.208.576-.504 1.08-.888 1.512a4.35 4.35 0 0 1-1.368 1.032c-.528.24-1.104.36-1.728.36h-8.88V5.248zm3.648 13.68h4.2c.48 0 .856-.128 1.128-.384.288-.272.432-.648.432-1.128V16.6c0-.48-.144-.848-.432-1.104-.272-.272-.648-.408-1.128-.408h-4.2v3.84zm0-6.816h3.624c.48 0 .856-.136 1.128-.408s.408-.648.408-1.128v-.72c0-.48-.136-.856-.408-1.128s-.648-.408-1.128-.408h-3.624v3.792z"/><use xlink:href="#B"/><path d="M213.522 22.288c-1.472 0-2.72-.248-3.744-.744-1.024-.512-1.896-1.168-2.616-1.968l2.4-2.424c1.136 1.28 2.536 1.92 4.2 1.92.896 0 1.56-.184 1.992-.552s.648-.856.648-1.464c0-.464-.128-.848-.384-1.152-.256-.32-.776-.536-1.56-.648l-1.656-.216c-1.776-.224-3.08-.76-3.912-1.608-.816-.848-1.224-1.976-1.224-3.384 0-.752.144-1.44.432-2.064a4.63 4.63 0 0 1 1.224-1.608c.544-.448 1.2-.792 1.968-1.032.784-.256 1.672-.384 2.664-.384 1.264 0 2.376.2 3.336.6s1.784.984 2.472 1.752l-2.424 2.448c-.4-.464-.888-.84-1.464-1.128-.56-.304-1.272-.456-2.136-.456-.816 0-1.424.144-1.824.432s-.6.688-.6 1.2c0 .576.152.992.456 1.248.32.256.832.44 1.536.552l1.656.264c1.728.272 3.008.808 3.84 1.608.832.784 1.248 1.904 1.248 3.36 0 .8-.144 1.536-.432 2.208s-.712 1.248-1.272 1.728c-.544.48-1.224.856-2.04 1.128-.816.256-1.744.384-2.784.384zm17.088-2.4h-.12c-.096.336-.248.656-.456.96-.208.288-.464.544-.768.768-.288.208-.624.368-1.008.48a3.48 3.48 0 0 1-1.152.192c-1.6 0-2.808-.56-3.624-1.68-.816-1.136-1.224-2.776-1.224-4.92s.408-3.776 1.224-4.896 2.024-1.68 3.624-1.68c.816 0 1.536.224 2.16.672.64.448 1.048 1.024 1.224 1.728h.12V9.4h3.552v17.4h-3.552v-6.912zm-2.328-.48c.672 0 1.224-.16 1.656-.48.448-.336.672-.792.672-1.368v-3.72c0-.576-.224-1.024-.672-1.344-.432-.336-.984-.504-1.656-.504a2.2 2.2 0 0 0-1.68.72c-.432.464-.648 1.096-.648 1.896v2.184c0 .8.216 1.44.648 1.92.448.464 1.008.696 1.68.696zm16.642.48h-.12a4.05 4.05 0 0 1-.456.912c-.176.288-.408.544-.696.768s-.632.4-1.032.528c-.384.128-.832.192-1.344.192-1.296 0-2.28-.424-2.952-1.272-.656-.864-.984-2.096-.984-3.696V9.4h3.552v7.608c0 .768.136 1.36.408 1.776s.736.624 1.392.624a2.88 2.88 0 0 0 .816-.12c.272-.08.512-.192.72-.336.208-.16.376-.352.504-.576a1.57 1.57 0 0 0 .192-.792V9.4h3.552V22h-3.552v-2.112zM261.093 22c-.64 0-1.176-.2-1.608-.6-.416-.4-.68-.936-.792-1.608h-.144c-.192.816-.616 1.44-1.272 1.872-.656.416-1.464.624-2.424.624-1.264 0-2.232-.336-2.904-1.008s-1.008-1.56-1.008-2.664c0-1.328.48-2.312 1.44-2.952.976-.656 2.296-.984 3.96-.984h1.992v-.792c0-.608-.16-1.088-.48-1.44-.32-.368-.856-.552-1.608-.552-.704 0-1.264.152-1.68.456a4.51 4.51 0 0 0-1.032 1.032l-2.112-1.872a5.43 5.43 0 0 1 1.92-1.752c.784-.432 1.84-.648 3.168-.648 1.792 0 3.136.392 4.032 1.176s1.344 1.928 1.344 3.432v5.52h1.176V22h-1.968zm-4.92-2.184c.592 0 1.096-.128 1.512-.384.432-.256.648-.672.648-1.248v-1.488h-1.728c-1.392 0-2.088.472-2.088 1.416v.36c0 .464.144.808.432 1.032.288.208.696.312 1.224.312zM265.445 22V9.4h3.552v2.736h.12a3.74 3.74 0 0 1 .336-1.008c.16-.336.368-.632.624-.888.272-.256.592-.456.96-.6.368-.16.8-.24 1.296-.24h.624v3.312h-.888c-1.04 0-1.816.136-2.328.408-.496.272-.744.776-.744 1.512V22h-3.552z"/><use xlink:href="#B" x="80.368"/></g><defs><linearGradient id="A" x1="14.081" y1="0" x2="14.081" y2="27" gradientUnits="userSpaceOnUse"><stop stop-color="#ff6544"/><stop offset="1" stop-color="#ff4449"/></linearGradient><path id="B" d="M199.919 22.288c-.96 0-1.816-.152-2.568-.456-.752-.32-1.392-.76-1.92-1.32-.512-.576-.904-1.272-1.176-2.088-.256-.816-.384-1.728-.384-2.736 0-.992.128-1.888.384-2.688.256-.816.632-1.512 1.128-2.088.512-.576 1.136-1.016 1.872-1.32.736-.32 1.576-.48 2.52-.48 1.04 0 1.928.176 2.664.528.752.352 1.36.824 1.824 1.416.48.592.824 1.28 1.032 2.064.224.768.336 1.576.336 2.424V16.6h-8.088v.192c0 .832.224 1.496.672 1.992.448.48 1.152.72 2.112.72.736 0 1.336-.144 1.8-.432.464-.304.896-.664 1.296-1.08l1.776 2.208c-.56.656-1.296 1.168-2.208 1.536-.896.368-1.92.552-3.072.552zm-.072-10.56c-.72 0-1.288.24-1.704.72-.4.464-.6 1.088-.6 1.872v.192h4.416v-.216c0-.768-.176-1.384-.528-1.848-.336-.48-.864-.72-1.584-.72z"/></defs></svg>
